symbols/web/gif_box/materialsymbolssharp/gif_box_wght100fill1_24px.svg

<svg xmlns="http://www.w3.org/2000/svg" height="24" width="24"><path d="M7.65 13.85H10.35V12.15H9.65V13.15H8.35V10.85H10.325V10.15H7.65ZM11.65 13.85H12.35V10.15H11.65ZM13.65 13.85H14.35V12.35H15.85V11.65H14.35V10.85H16.35V10.15H13.65ZM4.3 19.7V4.3H19.7V19.7Z"/></svg>

<svg xmlns="http://www.w3.org/2000/svg" height="24" width="24"><path d="M7.65 13.85h2.7v-1.7h-.7v1h-1.3v-2.3h1.975v-.7H7.65Zm4 0h.7v-3.7h-.7Zm2 0h.7v-1.5h1.5v-.7h-1.5v-.8h2v-.7h-2.7ZM4.3 19.7V4.3h15.4v15.4Z"/></svg>
